projects/oblique/icons/File.svg

<?xml version="1.0" encoding="UTF-8"?><svg id="a" xmlns="http://www.w3.org/2000/svg" viewBox="0 0 24 24"><path d="M8.82324,1.25025l-5.57324,7.71191v13.78809h17.5V1.25025h-11.92676ZM8.45654,4.31861v4.13574h-2.98926l2.98926-4.13574ZM19.25,21.25025H4.75v-11.2959h5.20654V2.75025h9.29346v18.5Z"/></svg>

<svg xmlns="http://www.w3.org/2000/svg" viewBox="0 0 24 24"><title>File</title><path d="M8.82324,1.25025,3.25,8.96216V22.75025h17.5v-21.5Zm-.3667,3.06836V8.45435H5.46729ZM19.25,21.25025H4.75V9.95435H9.95654V2.75025H19.25Z" fill="#171717"/></svg>
